!!!!SEGMENT: pl-wn--mus-iii-94-168_zelenski-wladyslaw--reverie-op-48.krn
!!!cenid: 18xx:3726
!!!COM: Żeleński, Władysław
!!!COM-rismID: pe41024455
!!!CDT: 1837/07/06-1921/01/23
!!!CNT: Polish
!!!OTL: Rêverie op. 48
!!!PDT:
!!!AGN:
!!!SMS-siglum: PL-Wn
!!!SMS-shelfmark: Mus.III.94.168
!!!SMS-shelfwork: W
!!!SMS-variant:
!!!SMS-altvar:
!!!NIFC-rismSourceID:
!!!NIFC-rismChildID:
!!!NIFC-islandoraID: none
!!!URL-pdf-islandora:
!!!URL-scan: https://polona2.pl/item/reverie-op-48,NzQ3NzU4Njc/1 @EN{Scan on Polona} @PL{Skany w portalu Polona}
!!!IIIF: https://polona2.pl/iiif/item/NzQ3NzU4Njc/manifest.json
!!!ONB-nifc:
!!!AIN: 2 piano
!!!key: a
**kern	**fing	**dynam	**kern	**fing	**dynam
*part2	*part2	*part2	*part1	*part1	*part1
*staff2	*	*	*staff1	*	*
*I"Piano	*	*	*I"Piano	*	*
*I'pf	*	*	*I'pf	*	*
*ICklav	*	*	*ICklav	*	*
*Ipiano	*	*	*Ipiano	*	*
*clefF4	*	*	*clefG2	*	*
*k[]	*	*	*k[]	*	*
*a:	*	*	*a:	*	*
*M6/4	*	*	*M6/4	*	*
=1	=1	=1	=1	=1	=1
*xywh-2:286,409,2656,1027	*	*	*xywh-2:286,409,2656,1027	*	*
!LO:TX:b:i:t=con	!	!	!LO:TX:a:B:t=Andante non troppo lento.	!	!
8AAA\L	.	.	1.r	.	p
*ped	*	*	*	*	*
(8e\	1	.	.	.	.
8c\	2	.	.	.	.
8A\	3	.	.	.	.
8E\	5	.	.	.	.
8e\J	1	.	.	.	.
8c\L	2	.	.	.	.
8A\	3	.	.	.	.
8E\	5	.	.	.	.
8e\	1	.	.	.	.
8c\	2	.	.	.	.
8A\J	1	.	.	.	.
=2	=2	=2	=2	=2	=2
8AA\L)	5	.	1.r	.	.
(8e\	.	.	.	.	.
8c\	.	.	.	.	.
8A\	.	.	.	.	.
8E\	.	.	.	.	.
8e\J	.	.	.	.	.
8c\L	.	.	.	.	.
8A\	.	.	.	.	.
8E\	.	.	.	.	.
8e\	.	.	.	.	.
8c\	.	.	.	.	.
8A\J	1	.	.	.	.
=3	=3	=3	=3	=3	=3
8AA\L)	5	.	4r	.	.
(8e\	.	.	.	.	.
!	!	!	!LO:TX:b:i:t=dolce	!	!
8c\	.	.	(4ee\	5	.
8A\	.	.	.	.	.
8E\	.	.	4dd\	.	.
8e\J	.	.	.	.	.
8c\L	.	.	4cc\	.	.
8A\	.	.	.	.	.
8E\	.	.	4b\	.	.
8e\	.	.	.	.	.
8c\	.	.	4a/	.	.
8A\J	1	.	.	.	.
!!LO:LB:g=original	!	!	!	!
=4	=4	=4	=4	=4	=4
*xywh-2:283,1410,2672,577	*	*	*xywh-2:283,1410,2672,577	*	*
8AA\L)	5	.	4g/	2	.
(8c#X\	.	.	.	.	.
8A\	.	.	4a/	3	.
8G\	.	.	.	.	.
8E\	.	.	4e/	1	.
8c#\J	.	.	.	.	.
8A\L	2	.	[2.f/)	2	.
8F\	4	.	.	.	.
8D\	5	.	.	.	.
8d\	1	.	.	.	.
8A\	2	.	.	.	.
8F\J	3	.	.	.	.
=5	=5	=5	=5	=5	=5
8GG#X\L)	.	.	4f/]	.	.
(8d\	.	.	.	.	.
8B\	.	.	(4f/	3	<
8E\	.	.	.	.	.
8d\	.	.	4d#X/	2	.
8B\J	.	.	.	.	.
8GGn\L)	.	.	4e/	1	.
(8c#X\	.	.	.	.	.
.	.	.	8qg/	.	.
8B-X\	.	.	4f/	.	.
8G\	.	.	.	.	.
8c#\	.	.	4e/	.	[[
8B-\J	.	.	.	.	.
=6	=6	=6	=6	=6	=6
8FF\L)	.	.	[2.a/)	.	>
(8e\	1	.	.	.	.
8c#X\	2	.	.	.	.
8A\	4	.	.	.	.
8F\	5	.	.	.	.
8g\J	1	.	.	.	.
8f\L	2	.	4a/]	.	.
8d\	3	.	.	.	]
!	!	!	!	!	!LO:HP:b:t=cresc. un poco
8A\	5	.	(4b\	2	<
8d\	1	.	.	.	.
8A\	2	.	4cc\	.	.
8F\J	3	.	.	.	.
!!LO:LB:g=original	!	!	!	!
=7	=7	=7	=7	=7	=7
*xywh-2:283,1972,2669,561	*	*	*xywh-2:283,1972,2669,561	*	*
8BB\L)	.	.	4dd\)	.	.
(8a\	.	.	.	.	.
8f\	.	.	(4ff\	5	.
8d\	.	.	.	.	.
8A\	.	.	4ee\	.	.
8g\J	.	.	.	.	.
8f\L	.	.	4dd\	.	.
8d\	.	.	.	.	.
8G#X\	.	.	4cc\	.	.
8e\	1	.	.	.	.
8d\	2	.	[4b\	.	.
8G#\J	3	.	.	.	.
=8	=8	=8	=8	=8	=8
8C\L)	.	.	4b\]	.	.
(8e\	1	.	.	.	.
8G#X\	2	.	4ee\	5	.
8E\	4	.	.	.	.
8C\	5	.	4g#X/	2	.
8d\J	1	.	.	.	.
8c\L	2	.	2a/)	1	.
8A\	3	.	.	.	.
8E\	5	.	.	.	.
8A\	1	.	.	.	.
!	!	!	!LO:TX:b:i:t=espress.	!	!
8E\	2	.	(4ee\	2	.
8C\J	3	.	.	.	.
=9	=9	=9	=9	=9	=9
8FF#X\L)	.	.	[2.a\) [2.aa	.	.
(8e\	.	.	.	.	.
8c\	.	.	.	.	.
8A\	.	.	.	.	.
8F#X\	.	.	.	.	.
8e\J	.	.	.	.	.
8c\L	2	.	4a\] 4aa]	.	.
8A\	1	.	.	.	.
8BB\	5	.	(4g\ 4gg	5	.
8d#X\	1	.	.	.	.
8c\	2	.	4f#X\ 4ff#X	4	.
8A\J	1	.	.	.	.
!!LO:LB:g=original	!	!	!	!
=10	=10	=10	=10	=10	=10
*xywh-2:219,2523,2694,611	*	*	*xywh-2:219,2523,2694,611	*	*
8GG\L)	.	.	(2.cc\) 2.ccc	.	.
(8f#X\	1	.	.	.	.
8d#X\	2	.	.	.	.
8B\	4	.	.	.	.
8G\	5	.	.	.	.
8a\J	1	.	.	.	.
8g\L	2	.	2b\) 2bb	4	.
8e\	3	.	.	.	.
8B\	5	.	.	.	.
8e\	1	.	.	.	.
8B\	2	.	(4ee\	.	.
8G\J	1	.	.	.	.
=11	=11	=11	=11	=11	=11
8FF#X\L)	.	.	[2.a\) [2.aa	.	.
(8e\	.	.	.	.	.
8c\	.	.	.	.	.
8A\	.	.	.	.	.
8F#X\	.	.	.	.	.
8e\J	.	.	.	.	.
8c\L	2	.	4a\] 4aa]	.	.
8A\	1	.	.	.	.
8BB\	5	.	(4g\ 4gg	5	.
8d#X\	1	.	.	.	.
8B\	2	.	4f#X\ 4ff#X	4	.
8A\J	1	.	.	.	.
=12	=12	=12	=12	=12	=12
*	*	*	*^	*	*
*	*	*	*	*xywh-2:219,2523,2694,611	*	*
8EE\L)	.	.	((2.fn/) 2.ffn	2r	.	.
(8dn\	.	.	.	.	.	.
8B\	.	.	.	.	.	.
8A\	.	.	.	.	.	.
8E\	.	.	.	[4b\	2	.
8d\J	.	.	.	.	.	.
8B\L	.	.	2.e/)) 2.ee	4b\]	.	>
8A\	.	.	.	.	.	.
8E\	.	.	.	(>4cc\	3	.
8d\	.	.	.	.	.	.
8B\	.	.	.	4g#X\	2	.
8E\J	1	.	.	.	.	]]
*	*	*	*v	*v	*	*
!!LO:LB:g=original	!	!	!	!
=13	=13	=13	=13	=13	=13
*xywh-2:219,3110,2704,868	*	*	*xywh-2:219,3110,2704,868	*	*
8AA\L)	.	.	8a/)	.	.
(8e\	.	.	8r	.	.
!	!	!	!LO:TX:b:i:t=espress.	!	!
8c\	.	.	(<4ee\	5	.
8A\	.	.	.	.	.
8E\	.	.	4dd\	.	.
8e\J	.	.	.	.	.
8c\L	.	.	4cc\	.	.
8A\	.	.	.	.	.
8E\	.	.	4b\	1	.
8e\	.	.	.	.	.
8c\	.	.	4a/	2	.
8A\J	1	.	.	.	.
=14	=14	=14	=14	=14	=14
*	*	*	*^	*	*
*	*	*	*	*xywh-2:219,3110,2704,868	*	*
8AA\L)	5	.	4r	4g\	.	.
(8c#X\	.	.	.	.	.	.
8A\	.	.	&(4ff/	4a\	2 5	.
8G\	.	.	.	.	.	.
8E\	.	.	4ee/	4e\	1 4	.
8c#\J	.	.	.	.	.	.
8A\L	2	.	4dd/	[2.f\)	3:5	.
8F\	4	.	.	.	.	.
8D\	5	.	4cc/	.	.	.
8d\	1	.	.	.	.	.
8A\	2	.	4b-X/	.	.	.
8F\J	3	.	.	.	.	.
=15	=15	=15	=15	=15	=15	=15
8GG\L)	.	.	4a/&)	4f\]	.	.
(8d\	.	.	.	.	.	.
8B-X\	.	.	(4b-X/	(4f\	1 4	.
8G\	.	.	.	.	.	.
8C\	.	.	4f#X/	4e\	2 3	.
8c\J	.	.	.	.	.	.
8B-\L	2	.	2g/	4d\	1 5	<
8E\	4	.	.	.	.	.
8C\	5	.	.	4c\	2	.
8B-\	1	.	.	.	.	.
8E\	2	.	4g#X/	4B-X\	1 5	.
8C\J	3	.	.	.	.	.
=16	=16	=16	=16	=16	=16	=16
8FF/L)	.	.	[2.a/)	4A\)	.	[ >
(<8F/	.	.	.	.	.	.
8C/	.	.	.	(4d\	2	.
8FF/	.	.	.	.	.	.
8F/	.	.	.	4A\	1	.
8C/J	.	.	.	.	.	.
8FF/L	.	.	4a/]	4c\)	2	]
8F/	.	.	.	.	.	.
8C/	.	.	4r	2ryy	.	.
8FF/	.	.	.	.	.	.
8A/	.	.	4r	.	.	.
8C/J	.	.	.	.	.	.
*	*	*	*v	*v	*	*
!!LO:PB:g=original	!	!	!	!
=17	=17	=17	=17	=17	=17
*xywh-3:229,398,2746,689	*	*	*xywh-3:229,398,2746,689	*	*
8FF\L)	.	.	4r	.	.
(8g\	1	.	.	.	.
8c#X\	2	.	(4ee\	.	<
8A\	4	.	.	.	.
8F\	5	.	4dd\	.	.
8f\J	1	.	.	.	.
8e\L	2	.	4cc\	.	.
8cn\	3	.	.	.	.
8F#X\	5	.	4bn\	.	.
8d\	1	.	.	.	.
8c\	2	.	4a/	.	.
8F#\J	4	.	.	.	.
=18	=18	=18	=18	=18	=18
*	*	*	*^	*	*
*	*	*	*	*xywh-3:229,398,2746,689	*	*
8GG\L)	.	.	(2.aa/)	4r	.	.
(8fn\	.	.	.	.	.	.
8d\	.	.	.	(4ff\	4	.
8c\	.	.	.	.	.	.
8G\	.	.	.	4ee\	.	.
8g\J	.	.	.	.	.	.
8f\L	2	.	[2.gg/)	4dd\	2 5	.
8B\	4	.	.	.	.	.
8G\	5	.	.	4g\	.	.
8f\	1	.	.	.	.	.
8e\	2	.	.	4a\	1	.
8c\J	1	.	.	.	.	.
=19	=19	=19	=19	=19	=19	=19
8C\L)	.	.	4gg/]	[2.b-X\)	2:1	.
(8e\	.	.	.	.	.	.
8B-X\	.	.	(4aa/	.	.	.
8G\	.	.	.	.	.	.
8C#X\	.	.	4ee/	.	2	.
8e\J	.	.	.	.	.	.
8A\L	2	.	2gg/	4b-\]	5	.
8F\	4	.	.	.	.	.
8D\	5	.	.	(4f\	.	.
8d\	1	.	.	.	.	.
8A\	2	.	4ff/)	4a\	2 5	.
8F\J	3	.	.	.	.	.
!!LO:LB:g=original	!	!	!	!	!
=20	=20	=20	=20	=20	=20	=20
*xywh-3:234,1062,2727,681	*	*	*xywh-3:234,1062,2727,681	*xywh-3:234,1062,2727,681	*	*
8AA\L)	.	.	[2.ee/	4g\	1 5	.
(8c#X\	1	.	.	.	.	.
8G\	2	.	.	4a\	2	.
8E\	3	.	.	.	.	.
8AA\	5	.	.	4e\	.	.
8c#\J	1	.	.	.	.	.
8F\L	2	.	4ee/]	2f\)	1	.
8D\	3	.	.	.	.	.
8AA-X\	5	.	(4dd/	.	5	.
8cn\	.	.	.	.	.	.
8F\	.	.	[4cc/	(4e\	4:5	.
8D\J	.	.	.	.	.	.
=21	=21	=21	=21	=21	=21	=21
8GG\L)	.	.	4cc/])	2.d\)	.	<
(8c\	.	.	.	.	.	.
8F\	.	.	(4e/	.	3	.
8D\	.	.	.	.	.	.
8GG\	.	.	4f/	.	.	.
8A\J	.	.	.	.	.	.
8F\L	.	.	2a/	(4c\	2 5	[
8D\	.	.	.	.	.	.
8GG\	.	.	.	4A\	.	.
8G\	.	.	.	.	.	.
8F\	.	.	4g/)	4Bn\	4	.
8D\J	1	.	.	.	.	.
=22	=22	=22	=22	=22	=22	=22
*^	*	*	*	*	*	*
*	*xywh-3:234,1062,2727,681	*	*	*	*	*	*
8CC\L)	8ryy	.	.	[2.g/	4f\	4 5	>
(<8G\	4G/	1	.	.	.	.	.
8C\	.	2	.	.	4e\	.	.
8GG\	4ryy	3	.	.	.	.	.
8CC\	.	.	.	.	4d\	.	.
8F\J	4F/	1	.	.	.	.	.
8E/L	.	1	.	4g/]	4c\)	.	]
8GG/	2ryy	2	.	.	.	.	.
!	!	!	!	!LO:TX:a:i:t=poco piu	!	!	!
8CC/J)	.	.	.	(4g/	4r	3	.
8r	.	.	.	.	.	.	.
4r	.	.	.	4a/	4r	.	.
.	8ryy	.	.	.	.	.	.
*v	*v	*	*	*	*	*	*
!!LO:LB:g=original	!	!	!	!	!
=23	=23	=23	=23	=23	=23	=23
*xywh-3:236,1704,2727,589	*	*	*xywh-3:236,1704,2727,589	*xywh-3:236,1704,2727,589	*	*
!	!	!	!LO:TX:a:i:t=mosso\ncantabile	!	!	!
!	!	!	!	!LO:N:vis=2	!	!
8CC/	.	.	[2.b-X/)	8b-\L	.	.
8r	.	.	.	(8e-X\	2	.
4r	.	.	.	8d\	1	.
.	.	.	.	8g\J	3	.
8r	.	.	.	8f#X\)	.	.
(8C/	5	.	.	8r	.	.
8E-X\L	3	.	4b-/]	4r	.	.
8F#X\	.	.	.	.	.	.
8c\J)	.	.	(4g#X/	8g#\L	2	.
8r	.	.	.	8d\	.	.
(4C/	4	.	4a/	8a\	3	.
.	.	.	.	8f#\J	2	.
=24	=24	=24	=24	=24	=24	=24
8BB-X/)	.	.	[2.dd/)	8d\L	.	.
8r	.	.	.	8a\	3	.
!	!	!	!LO:TX:b:i:t=poco rit.	!	!	!
(4d\	.	.	.	8f#X\	2	.
.	.	.	.	8b-X\	4	.
4c\	.	.	.	8a\	.	.
.	.	.	.	8f#\J	.	.
4B\	.	.	4dd/]	(>8d\L	.	.
.	.	.	.	8g\	.	.
4A\	1	.	2ryy	8dd\	5	.
.	.	.	.	8dd\	1	.
4G\)	.	.	.	8gg\	.	.
.	.	.	.	8ddd\J)	.	.
=25	=25	=25	=25	=25	=25	=25
!	!	!	!	!LO:N:vis=2	!	!
8EE-X/	.	.	[2.dd/	8dd\L	5	.
8r	.	.	.	(8g\	1	.
4r	.	.	.	8g-X\	2	.
.	.	.	.	8b-X\J	3	.
8r	.	.	.	8a\)	2	.
(8E-X\	5	.	.	8r	.	.
8G-X\L	3	.	4dd/]	4r	.	.
8A\	.	.	.	.	.	.
8e-X\J)	.	.	(4bn/	8b\L	2	.
8r	.	.	.	8fn\	.	.
(4EE-/	4	.	4cc/	8cc\	3	.
.	.	.	.	8a\J	2	.
!!LO:LB:g=original	!	!	!	!	!
=26	=26	=26	=26	=26	=26	=26
*xywh-3:234,2289,2709,737	*	*	*xywh-3:234,2289,2709,737	*xywh-3:234,2289,2709,737	*	*
8DD/)	.	.	[2.ff/)	8f\L	.	.
8r	.	.	.	8cc\	3	.
(4f\	.	.	.	8a\	2	.
.	.	.	.	8dd\	4	<
4e-X\	.	.	.	8cc\	.	.
.	.	.	.	8a\J	.	.
4d\	1	.	4ff/]	(>8f\L	.	.
.	.	.	.	8b-X\	.	.
4c\	.	.	2ryy	8ff\	.	.
.	.	.	.	8ff\	.	.
4B-X\)	.	.	.	8bb-X\	.	.
.	.	.	.	8fff\J)	.	[[
=27	=27	=27	=27	=27	=27	=27
*^	*	*	*	*^	*	*
*	*^	*	*	*	*	*	*	*
*	*xywh-3:234,2289,2709,737	*xywh-3:234,2289,2709,737	*	*	*	*	*xywh-3:234,2289,2709,737	*	*
!	!	!	!	!	!LO:TX:b:i:t=con gran. espr.	!	!	!	!
!	!	!	!	!	!	!LO:N:vis=2	!	!	!
4GGG/ 4GG	4.ryy	2ryy	.	.	(2bbb-X/	8bb-X\L	2bb-\	.	f
.	.	.	.	.	.	8ggg\	.	.	.
8r	.	.	.	.	.	8ddd\J	.	.	.
*clefG2	*	*	*	*	*	*	*	*	*
(8B-X/L	4.B-\	.	5	.	.	8r	.	.	.
8d/	.	4d\	4	.	4aaa/	4aa\	4ryy	.	.
8cc/J	.	.	1	.	.	.	.	.	.
!	!	!	!	!	!	!LO:N:vis=2	!	!	!
4b-X/)	4.ryy	2ryy	2	.	2ggg/	8gg\L	2gg\	.	.
.	.	.	.	.	.	8ddd\	.	.	.
8r	.	.	.	.	.	8bb-\J	.	.	.
(8G/L	4.G\	.	.	.	.	8r	.	.	.
8B-/	.	4B-\	.	.	4fff\) 4ff	4ff\yy	4ryy	.	.
8a/J	.	.	.	.	.	.	.	.	.
=28	=28	=28	=28	=28	=28	=28	=28	=28	=28
!	!	!	!	!	!	!LO:N:vis=2	!	!	!
4g/)	4.ryy	2ryy	.	.	(2eee-X/	8ee-X\L	2ee-\	.	.
.	.	.	.	.	.	8bb-X\	.	.	.
8r	.	.	.	.	.	8gg\J	.	.	.
*clefF4	*	*	*	*	*	*	*	*	*
(8E-X/L	4.E-\	.	.	.	.	8r	.	.	.
8G/	.	4G\	.	.	4ddd/	4dd\	4ryy	.	<
8f/J	.	.	.	.	.	.	.	.	.
!	!	!	!	!	!	!LO:N:vis=2	!	!	!
4e-X\)	4.ryy	2ryy	.	.	2ccc/	8cc\L	2cc\	.	.
.	.	.	.	.	.	8gg\	.	.	.
8r	.	.	.	.	.	8ee-\J	.	.	.
(8C/L	4.C\	.	.	.	.	8r	.	.	.
8E-/	.	4E-\	.	.	4bb-X\) 4b-X	4b-X\yy	4ryy	4	.
8e-/J)	.	.	.	.	.	.	.	.	.
*v	*v	*v	*	*	*	*	*	*	*
*	*	*	*	*v	*v	*	*
!!LO:LB:g=original	!	!	!	!	!
=29	=29	=29	=29	=29	=29	=29
*xywh-3:234,2989,2714,740	*	*	*xywh-3:234,2989,2714,740	*xywh-3:234,2989,2714,740	*	*
4FF/	.	.	2ddd/	(8dd\L	.	[
.	.	.	.	8gg\	.	.
8r	.	.	.	8ff\J)	.	.
(8F\L	5	.	.	8r	.	.
8B-X\	3	.	(4gg/	4g\ 4b-X	.	.
8f\J	.	.	.	.	.	.
4e-X\)	.	.	2aa/)	(8a\L	.	>
.	.	.	.	8dd\	.	.
8r	.	.	.	8cc\J)	.	.
(8A\L	1	.	.	8r	.	.
8C\	2	.	(4aa/ 4eee-X	4ee-X\	.	.
8FF\J	5	.	.	.	.	]]
=30	=30	=30	=30	=30	=30	=30
4BBB-X/)	4	.	2bb-X/) 2ddd	(8dd\L	.	.
.	.	.	.	8gg\	2	.
8r	.	.	.	8ff\J)	1	.
(8BB-X\L	5	.	.	8rff	.	p
8F\	3	.	(>4g'/ 4b-X 4gg	1ryy	.	.
8c\J)	1	.	.	.	.	.
(8d\L	1	.	4f'/) 4b- 4ff	.	.	.
8F\	4	.	.	.	.	.
8B-X\	2	.	(>4f/	.	3	.
8D\	5	.	.	.	.	.
8BB-\	1	.	4g/	.	.	.
8FF\J	2	.	.	.	.	.
=31	=31	=31	=31	=31	=31	=31
!	!	!	!LO:TX:a:i:t=cantabile	!	!	!
!	!	!	!	!LO:N:vis=2	!	!
8BBB-X/)	5	.	[2.a-X/)	8a-\L	.	.
8r	.	.	.	(8d-X\	2	.
4r	.	.	.	8c\	1	.
.	.	.	.	8f\J	3	.
!	!	!	!LO:TX:b:i:t=poco	!	!	!
8r	.	.	.	8en\)	.	.
(8BB-X/	5	.	.	8r	.	.
8D-X\L	3	.	4a-/]	4r	.	<
8En\	2	.	.	.	.	.
8B-X\J)	1	.	(4f#X/	8f#\L	2	.
!	!	!	!LO:TX:b:i:t=e string.	!	!	!
8r	.	.	.	8c\	.	.
(4BB-/	4	.	4g/	8g\	3	.
.	.	.	.	8e\J	2	.
!!LO:PB:g=original	!	!	!	!	!
=32	=32	=32	=32	=32	=32	=32
*xywh-4:333,437,2727,846	*	*	*xywh-4:333,437,2727,846	*xywh-4:333,437,2727,846	*	*
8AAA-X/)	.	.	2cc/)	(8c\L	.	.
8r	.	.	.	8g\	.	.
8r	.	.	.	8fn\J)	.	.
(8C\L	5	.	.	8r	.	.
8F\	3	.	(4b-X\ 4bb-X	1ryy	5	.
8d-X\J)	1	.	.	.	.	.
(8c\L	1	.	4a-X\ 4aa-X	.	4	.
8F\	5	.	.	.	.	.
8B-X\	4	.	4g\ 4gg	.	5	.
8en\	2	.	.	.	.	.
8a-X\	1	.	4f\) 4ff	.	4	.
8c\J	3	.	.	.	.	.
=33	=33	=33	=33	=33	=33	=33
!	!	!	!	!LO:N:vis=2	!	!
8DD-X/)	.	.	[2cc/	8cc\L	5	.
8r	.	.	.	(8f\	.	.
4r	.	.	.	8f-X\	1	.
.	.	.	.	8a-X\J	.	.
8r	.	.	4ryy_	8g\)	.	.
(8D-X\	5	.	.	8r	.	.
8F\L	3	.	4cc/]	4r	.	.
8G\	2	.	.	.	.	.
8d-X\J)	1	.	(4an/	8a\L	2	.
8r	.	.	.	8e-X\	.	.
(4D-\	1	.	4b-X/	8b-\	3	.
.	.	.	.	8g\J	.	.
=34	=34	=34	=34	=34	=34	=34
4CC/)	.	.	2ee-X/)	(8e-X\L	.	.
.	.	.	.	8b-X\	.	.
8r	.	.	.	8a-X\J)	.	.
(8E-X\L	5	.	.	8r	.	.
8A-X\	3	.	(4dd-X\ 4ddd-X	1ryy	4	<
8f\J)	1	.	.	.	.	.
(8e-X\L	1	.	4cc\ 4ccc	.	5	.
8A-\	2	.	.	.	.	.
8c\	1	.	4b-\ 4bb-X	.	4	.
8A-\	2	.	.	.	.	.
8E-\	3	.	4a-X\) 4aa-X	.	3	.
8AA-X\J	5	.	.	.	.	[[
*	*	*	*v	*v	*	*
!!LO:LB:g=original	!	!	!	!
=35	=35	=35	=35	=35	=35
*xywh-4:406,1280,2673,808	*	*	*xywh-4:406,1280,2673,808	*	*
*ped	*	*	*	*	*
8GGGn/L) 8GGn	.	.	2ff-X\ 2bb-- 2ddd-X 2fff-X	.	ff
(8F-X/	2	.	.	.	.
8D-X/	3	.	.	.	.
8GG/	5	.	.	.	.
8D-/	3	.	[4dd-X\ [4ff- [4bb-- [4ddd-	.	.
8B--/J	1	.	.	.	.
8G\L	4	.	4dd-\] 4ff-] 4bb--] 4ddd-]	.	.
*Xped	*	*	*	*	*
8f-X\	1	.	.	.	.
8d-X\	2	.	(4a-X~\ 4aa-X	4	.
8B--\	1	.	.	.	.
8F-\	2	.	4b--~\) 4bb--	.	.
8D-\J	3	.	.	.	.
=36	=36	=36	=36	=36	=36
*	*	*	*^	*	*
*	*	*	*	*xywh-4:406,1280,2673,808	*	*
*ped	*	*	*	*	*	*
!	!	!	!	!LO:N:vis=2	!	!
8AAA-X/L) 8AA-X	.	.	[2.ffn/ [2.aa-X [2.ddd-X [2.fffn	8ff\L	.	.
(8AA-/	4	.	.	(8F\	.	.
8D-X/	2	.	.	8A-X\	.	.
8F/	1	.	.	8d-X\	.	.
8A-X/	4	.	.	8f\	.	>
8d-X/J	.	.	.	8a-X\J	.	.
8f\L	.	.	4ff/] 4aa-] 4ddd-] 4fff]	4dd-X\)	.	.
8d-\	.	.	.	.	.	.
8A-\	.	.	(4cc'\ 4ccc	2ryy	.	.
*Xped	*	*	*	*	*	*
8F\	.	.	.	.	.	.
8D-\	.	.	4dd-'\) 4ddd-	.	.	.
8AA-\J	.	.	.	.	.	]]
*	*	*	*v	*v	*	*
=37	=37	=37	=37	=37	=37
*ped	*	*	*	*	*
8AAAn/L) 8AAn	.	.	2gg-X\ 2ccc-X 2eee-X 2ggg-X	.	ff
(8G-X/	2	.	.	.	.
8E-X/	3	.	.	.	.
8AA/	5	.	.	.	.
8E-/	3	.	[4ee-X\ [4gg- [4ccc- [4eee-	.	.
8c-X/J	1	.	.	.	.
8An\L	4	.	4ee-\] 4gg-] 4ccc-] 4eee-]	.	.
8g-X\	1	.	.	.	.
*Xped	*	*	*	*	*
8e-X\	2	.	(4b-X~\ 4bb-X	.	.
8c-\	1	.	.	.	.
8G-\	2	.	4cc-X~\) 4ccc-X	.	.
8E-\J	3	.	.	.	.
!!LO:LB:g=original	!	!	!	!
=38	=38	=38	=38	=38	=38
*	*	*	*^	*	*
*xywh-4:403,2063,2683,856	*	*	*xywh-4:403,2063,2683,856	*xywh-4:403,2063,2683,856	*	*
*ped	*	*	*	*	*	*
!	!	!	!	!LO:N:vis=2	!	!
8BBB-X/L) 8BB-X	.	.	[2.ggn/ [2.bb-X [2.eee-X [2.gggn	8gg\L	.	.
(8BB-/	4	.	.	(8Gn\	.	.
8E-X/	2	.	.	8B-X\	.	.
8Gn/	1	.	.	8e-X\	.	.
8B-X/	4	.	.	8g\	.	.
8e/J	.	.	.	8b-X\J	.	.
8g\L	.	.	4gg/] 4bb-] 4eee-] 4ggg]	8ee-X\)	.	>
8e\	.	.	.	8r	.	.
*Xped	*	*	*	*	*	*
8B-\	.	.	(4dd~\ 4ddd	2ryy	.	.
8G\	.	.	.	.	.	.
8E-\	.	.	4ee-~\) 4eee-	.	.	.
8BB-\J	.	.	.	.	.	]]
*	*	*	*v	*v	*	*
=39	=39	=39	=39	=39	=39
*ped	*	*	*	*	*
8BBBn/L) 8BBn	.	.	2aa-X\ 2ddd-X 2fff 2aaa-X	.	ff
(8A-X/	2	.	.	.	.
8F/	3	.	.	.	.
8BB/	5	.	.	.	.
8F/	3	.	[4ff\ [4aa- [4ddd- [4fff	.	.
8d-X/J	.	.	.	.	.
*clefG2	*	*	*	*	*
8c-X\L	5	.	4ff\] 4aa-] 4ddd-] 4fff]	.	.
8a-X\	1 2	.	.	.	.
*Xped	*	*	*	*	*
8f\	2 3	.	(4cc~\ 4ccc	.	.
*clefF4	*	*	*	*	*
8d-X\	1	.	.	.	.
8A-X\	2	.	4dd-X~\) 4ddd-X	.	.
8F\J	3	.	.	.	.
=40	=40	=40	=40	=40	=40
*	*	*	*^	*	*
*	*	*	*	*xywh-4:403,2063,2683,856	*	*
*ped	*	*	*	*	*	*
!	!	!	!	!LO:N:vis=2	!	!
8CCn/L) 8Cn	.	.	[2.aan/ [2.dddn [2.fff#X [2.aaan	8aa\L	.	.
!	!	!	!LO:TX:t=P:problem=wężowy łuk na dole	!	!	!
(8C/	5	.	.	(8An\	.	ff
8F#X/	3	.	.	8dn\	.	.
8An/	2	.	.	8f#X\	.	.
*clefG2	*	*	*	*	*	*
8c/	1	.	.	8an\	.	>
8f#X/J	3	.	.	8ddn\J	.	.
8a\L	2	.	4aa/] 4ddd] 4fff#] 4aaa]	8ff#X\L	.	.
8cc\	1	.	.	8aa\	.	.
8ff#X\	3	.	2ryy	8ddd\	.	.
8ccc\	1	.	.	8aaa\	.	.
8aa\	.	.	.	8fff#\	.	.
8ff#\J)	.	.	.	8ddd\J	.	]]
*	*	*	*v	*v	*	*
!!LO:LB:g=original	!	!	!	!
=41	=41	=41	=41	=41	=41
*xywh-4:422,2894,2638,814	*	*	*xywh-4:422,2894,2638,814	*	*
(8cc/L	1	.	8aa\L	1	.
8a/	2	.	8ff#X\	4	.
!	!	!	!	!	!LO:HP:t=dim.
8f#X/	3	.	8dd\	2	>
8cc/	.	.	8aa\	5	.
8a/	.	.	8ff#\	4	.
8f#/J	.	.	8dd\J	2	.
*clefF4	*	*	*	*	*
8c\L	1	.	8a/L	1	.
8A\	2	.	8f#X/	4	.
8F#X\	3	.	8d/	2	.
8c\	.	.	8a/	.	.
8A\	.	.	8f#/	.	.
8F#\J	.	.	8d/J	.	.
=42	=42	=42	=42	=42	=42
8C\L)	5	.	8A/)	.	.
(8A\	1	.	8r	.	.
8F#X\	2	.	4r	.	.
*Xped	*	*	*	*	*
8D\	4	.	.	.	.
8C\	5	.	[4d/ [4f#X [4a [4dd	.	p
8A\J	.	.	.	.	.
8F#\L	.	.	8d/L] 8f#] 8a] 8dd]	.	.
8D\	.	.	(8d/	1	.
8C\	.	.	8b/	3	.
8A\	.	.	8a/	2	.
8F#\	.	.	8dd/)	5	.
8D\J	.	.	([8dd/J	1	.
=43	=43	=43	=43	=43	=43
*ped	*	*	*	*	*
8BB\L)	.	.	8dd\]) 8ffn 8aa 8ddd	.	.
(8A\	.	.	8r	.	.
8Fn\	.	.	4r	.	.
8D\	.	.	.	.	.
8BB\	.	.	[4A^/ [4d [4fn [4a	.	.
8F\J	1	.	.	.	.
8BB/L	2	.	8A/L] 8d] 8f] 8a]	.	.
8AA/	3	.	(8d/	1	.
8FF/	5	.	8b/	3	.
8BB/	1	.	8a/	2	.
8AA/	.	.	8dd/)	5	.
*Xped	*	*	*	*	*
8FF/J	.	.	([8dd/J	1	.
!!LO:PB:g=original	!	!	!	!
=44	=44	=44	=44	=44	=44
*xywh-5:219,489,2774,724	*	*	*xywh-5:219,489,2774,724	*	*
*ped	*	*	*	*	*
8BBB/L)	.	.	8dd\]) 8ff 8aa 8ddd	.	pp
!LO:TX:b:i:t=una corda	!	!	!	!	!
(8F/	.	.	8r	.	.
8BB/	.	.	4r	.	.
8AA/	.	.	.	.	.
8FF/	.	.	[4B^/ [4d#X [4a [4b	.	.
8BB/J	1	.	.	.	.
8AA/L	2	.	2B/_ 2d#_ 2a_ 2b_	.	.
8FF/	3	.	.	.	.
8BBB/)	5	.	.	.	.
(<8BBB/	1	.	.	.	.
8AAA/	2	.	8B/] 8d#] 8a] 8b]	.	.
8FFF/J	4	.	8r	.	.
=45	=45	=45	=45	=45	=45
!LO:TX:b:i:t=con	!	!	!	!	!
!LO:TX:t=P:problem=mixed beam	!	!	!	!	!
8EEE/L)	.	.	4r	.	.
*ped	*	*	*	*	*
(8e\	.	.	.	.	.
!	!	!	!LO:TX:b:i:t=sotto voce	!	!
8c\	.	.	(4ee\	.	.
8A\	.	.	.	.	.
8E\	.	.	4dd\	.	.
8e\J	.	.	.	.	.
8c\L	.	.	4cc\	.	.
8A\	.	.	.	.	.
8E\	.	.	4b\	.	.
8e\	.	.	.	.	.
8c\	.	.	4a/	.	.
8A\J	1	.	.	.	.
=46	=46	=46	=46	=46	=46
8EE\L)	.	.	4g/	.	.
(8c#X\	.	.	.	.	.
8A\	.	.	4a/	.	.
8G\	.	.	.	.	.
8E\	.	.	4e/	.	.
8c#\J	.	.	.	.	.
8A\L	.	.	[>2.f/)	.	.
8F\	.	.	.	.	.
8E-X\	.	.	.	.	.
8cn\	.	.	.	.	.
8A\	.	.	.	.	.
8F\J	1	.	.	.	.
!!LO:LB:g=original	!	!	!	!
=47	=47	=47	=47	=47	=47
*xywh-5:219,1169,2768,676	*	*	*xywh-5:219,1169,2768,676	*	*
8DD\L)	.	.	4f/]	.	.
(8B\	1	.	.	.	.
8G#X\	2	.	(>4f/	3	.
8F\	3	.	.	.	.
8D\	5	.	4d#X/	2	<
8c\J	1	.	.	.	.
8B-X\L	2	.	4e/	1	.
8Gn\	3	.	.	.	.
.	.	.	(<8qg/	.	.
8C#X\	5	.	4f/)	.	.
8B-\	1	.	.	.	.
8G\	2	.	4e/	.	[[
8Cn\J	1	.	.	.	.
=48	=48	=48	=48	=48	=48
8CCn\L)	.	.	[>2.a/)	.	>
(8d#X\	.	.	.	.	.
8A\	.	.	.	.	.
8F#X\	.	.	.	.	.
8Cn\	.	.	.	.	.
8d#\J	.	.	.	.	.
8A\L	.	.	4a/]	.	.
8F#\	.	.	.	.	.
8C\	.	.	(4b\	2	]
8d#\	.	.	.	.	.
8A\	.	.	4cc\	.	.
8F#\J	1	.	.	.	.
=49	=49	=49	=49	=49	=49
8BBB\L)	.	.	4dd\)	.	.
(8dn\	.	.	.	.	.
8A\	.	.	(4ff\ 4fff	.	<
8Fn\	.	.	.	.	.
8BB\	.	.	4ee\ 4eee	.	.
8g\J	1	.	.	.	.
8f\L	2	.	4dd\ 4ddd	.	.
8d\	3	.	.	.	.
8G#X\	5	.	4cc\ 4ccc	.	.
8e\	1	.	.	.	.
8d\	2	.	[4b\) [4bb	.	[[
8G#\J	3	.	.	.	.
!!LO:LB:g=original	!	!	!	!
=50	=50	=50	=50	=50	=50
*xywh-5:222,1833,2742,692	*	*	*xywh-5:222,1833,2742,692	*	*
8CC\L)	.	.	4b\] 4bb]	.	.
(8e\	1	.	.	.	.
8G#X\	2	.	(4ee\ 4eee	.	.
8E\	4	.	.	.	.
8C\	5	.	4g#X\ 4gg#X	4	.
8d\J	1	.	.	.	.
8c\L	2	.	2a\) 2aa	.	.
8A\	3	.	.	.	.
8E\	5	.	.	.	.
8A\	1	.	.	.	.
8E\	2	.	4ee\ 4eee	.	.
8C\J	3	.	.	.	.
=51	=51	=51	=51	=51	=51
!	!	!	!LO:TX:b:i:t=espress. molto	!	!
8FFF/L) 8FF	.	.	2aa\ 2ccc 2aaa	.	f
(8a\	1	.	.	.	.
8c\	2	.	.	.	.
8A\	4	.	.	.	.
8F\	5	.	([4a\ [4aa	5:3	.
8A\J	1	.	.	.	.
8C/L	2	.	4a\] 4aa]	.	.
8AA/	4	.	.	.	.
8FF/	5	.	4b\ 4bb	4	.
8AA/	1	.	.	.	.
8CC/	2	.	4cc\) 4ccc	.	.
8AAA/J	4	.	.	.	.
=52	=52	=52	=52	=52	=52
!LO:TX:t=P:problem=mixed beam	!	!	!	!	!
8EEE/L)	.	.	2ee\ 2aa 2ccc 2eee	.	.
(8e\	.	.	.	.	.
8c\	.	.	.	.	.
8A\	.	.	.	.	.
8E\	.	.	(4a\ [4aa	.	.
8f\J	1	.	.	.	.
8e\L	2	.	4a\ 4aa]	.	.
8c\	3	.	.	.	.
8A\	5	.	4b\ 4bb	.	.
8B\	1	.	.	.	.
8E\	2	.	4cc\ 4ccc	.	.
8C\J	3	.	.	.	.
!!LO:LB:g=original	!	!	!	!
=53	=53	=53	=53	=53	=53
*	*	*	*^	*	*
*xywh-5:219,2508,2758,603	*	*	*xywh-5:219,2508,2758,603	*xywh-5:219,2508,2758,603	*	*
8EE\L)	.	.	((2.f/) 2.ff	2ryy	.	.
(8d\	.	.	.	.	.	.
8B\	.	.	.	.	.	.
8A\	.	.	.	.	.	.
8E\	.	.	.	4b\	2	.
8d\J	.	.	.	.	.	.
8B\L	.	>	[<2.e/)) [2.ee	(4b\	.	.
8A\	.	.	.	.	.	.
8E\	.	.	.	4cc\	.	.
8d\	.	.	.	.	.	.
8B\	.	.	.	4g#X\	.	.
8E\J	1	.	.	.	.	.
*	*	*	*v	*v	*	*
=54	=54	=54	=54	=54	=54
8AA/)	.	]]	8e/]) 8a 8ee]	.	.
!	!	!	!	!	!LO:HP:t=dim.
8r	.	.	8r	.	>
(4e\	.	.	4r	.	.
4d\	.	.	4r	.	.
4c#X\	.	.	((2.gn^\ [2.ee	4	.
4B\	.	.	.	.	.
4A\	1	.	.	.	.
=55	=55	=55	=55	=55	=55
*	*	*	*^	*	*
8AA/)	.	.	4ee/]	[2.f\)	.	p <
8r	.	.	.	.	.	.
8r	.	.	4ff/	.	.	.
(8d\L	3	.	.	.	.	.
8A\	5	.	4cc#X/	.	2	.
8g\J	1	.	.	.	.	.
8f\L	2	.	2dd/)	2f\]	.	[
8d\	3	.	.	.	.	.
8A\	5	.	.	.	.	.
8d\	1	.	.	.	.	.
8A\	2	.	(4a/	(4f\	2 3	>
8F\J	3	.	.	.	.	.
=56	=56	=56	=56	=56	=56	=56
8AA/)	.	.	4cc#X/)	4e\)	.	.
8r	.	.	.	.	.	.
(4E\	.	.	4r	1ryy	.	]
4D\	.	.	4r	.	.	.
*	*	*	*clefF4	*	*	*
4C#X/	.	.	(<2.G^\ [2.e	.	4	.
4BB/	.	.	.	.	.	.
4AA/	1	.	.	4ryy	.	.
!!LO:LB:g=original	!	!	!	!	!	!
=57	=57	=57	=57	=57	=57	=57
*xywh-5:222,3098,2749,854	*	*	*xywh-5:222,3098,2749,854	*xywh-5:222,3098,2749,854	*	*
8AAA/)	.	.	&(4e/]	&[2.F\)	.	<
8r	.	.	.	.	.	.
8r	.	.	4f/	.	.	.
(8D/L	3	.	.	.	.	.
8AA/	5	.	4c#X/	.	.	.
8G/J	1	.	.	.	.	.
8F/L	2	.	2d/&)	2F\*]	.	[ >
8D/	3	.	.	.	.	.
8AA/	5	.	.	.	.	.
8D/	1	.	.	.	.	.
8AA/	2	.	(4A/	4F\	2 3	.
8FF/J	3	.	.	.	.	.
*	*	*	*v	*v	*	*
=58	=58	=58	=58	=58	=58
*ped	*	*	*	*	*
!LO:TX:a:i:t=una corda	!	!	!	!	!
(<8AAA/L)	.	.	8E\) 8c#X	.	] pp
8EE/	2	.	8r	.	.
8AA/	1	.	8r	.	.
*	*	*	*clefG2	*	*
8F#X/	2	.	(8d/L	1	<
8E/	3	.	8c#X/	2	.
8A/J	1	.	8e/J	1	.
*clefG2	*	*	*	*	*
8c#X/L	4	.	8a\L	2	.
8f#X/	2	.	8dd\	5	[
8e/	3	.	8cc#X\	4	>
8a/	1	.	8ee\	1	.
8cc#X/	3	.	8aa\	2	.
8ee/J	2	.	8ccc#X\J	3	]]
=59	=59	=59	=59	=59	=59
8ccc#X\)	.	.	8aaa\)	.	.
8r	.	.	8r	.	.
4r	.	.	4r	.	.
4r	.	.	4r	.	.
*clefF4	*	*	*	*	*
4AA:\ 4E: 4A:	.	.	4c#X:/ 4e: 4a: 4cc#X:	.	ppp
4r	.	.	4r	.	.
4r	.	.	4r	.	.
=60	=60	=60	=60	=60	=60
*Xped	*	*	*	*	*
4AAA/	.	.	1.r	.	.
4r	.	.	.	.	.
4r	.	.	.	.	.
2.r	.	.	.	.	.
==	==	==	==	==	==
*-	*-	*-	*-	*-	*-
!!!system-decoration: {(s1,s2)}
!!!RDF**kern: > = above
!!!RDF**kern: < = below
!!!ENC: Filip Voros
!!!END: 2022-03-25
!!!ENC: Natalia Wrzos
!!!END: 2022-03-28
!!!ENC-iiif: Emilia Ziętek
!!!END-iiif: 2022-08-26
!!!YEC: Copyright 2022 Narodowy Instytut Fryderyka Chopina (https://polishscores.org)
!!!YEM: License CC-BY-4.0 (https://creativecommons.org/licenses/by/4.0)
